X:20
T: O'Sullivan's Infernal Hornpipe
C: Jerry O'Sullivan
Z: B.Black
R: hornpipe
M: 4/4
L: 1/8
K: A
e2|ec (3AcA EFAe|feae fecA|ec (3AcA EFAe|\
BAcA B2 af |
ec (3AcA EFAe|feae fecA|(3eae ce (3dfd Bd|\
(3cBA (3BAG A2 :|
e2|Acef a3 b|(3cba (3bag afec|Acec fAeA|\
B3 A BdcB |
Acef a3 b|(3cba (3bag afec|(3Ace (3aec (3GBd (3gdB|\
(3Ace (3aec A2 :|


